X:1189
T:Den första
R:Gånglåt
C:Jonas Brunskog
M:2/4
L:1/8
Q:1/4=90
K:C
|:G,C DF| ED CD|G,C DF| ED G2|
G,C DF| ED CD|G>F ED| CD3:|
|:GG c2 |GG A2|AG FE| D4|
GG cc| GG A2|G>F ED|[1 CD3:|[2  B,C3|]
(:musicend:)

(:music:)
